X: 37
T: The Elusive Lover
C: John Sarney
O: Naples, Florida
%R: reel
Z: Collected and edited 2014 by John Chambers <jc:trillian.mit.edu>
B: GEMS The Best of the Country Dance and Song Society Diamond Jubilee Music, Dance and Song Contest 1993 p.67 #1
M: C|
L: 1/8
K: G
% - - - - - - - - - - - - - - - - - - - - - - - - -
ED |\
"G"G2GA GFED | "Em"EDGD EFGA | "G"B2Bd cBAG | "Am"AGBG "D"E2DE | "G"G2GA GFED |
"Em"EDGD EFGA | "G"B2Bd "D"cBAc | "G"B2G2 G2 :: Bd | "G"g2bd g2ag | "C"edc2 "G"d2de |
"F"=f2Ac f2gf | "D"edcA "G"G2Bd | "G"g2fg ageg | "Am"a2ab "D"agef | "G"g2dB GABG | "D"AGFA "G"G2 :|
% - - - - - - - - - - - - - - - - - - - - - - - - -

